assets/recycle.svg

<svg xmlns="http://www.w3.org/2000/svg" fill="none" viewBox="0 0 28 28">
  <path fill="#2A2238" d="M16.344 1.36556c-.2363-.414868-.5775-.759662-.9892-.999463C14.9432.126295 14.4758 0 14 0s-.9432.126295-1.3548.366097c-.4117.239801-.7529.584595-.9892.999463L8.58832 6.75438c-.11865.20838-.15003.45558-.08723.6872.0628.23162.21463.4287.42209.54788.20746.11918.45355.1507.68415.08762.23059-.06307.42677-.21558.54547-.42397l3.0659-5.39062c.0787-.13829.1925-.25322.3297-.33315.1372-.07994.293-.12203.4516-.12203.1586 0 .3144.04209.4516.12203.1372.07993.251.19486.3297.33315l4.5728 8.03621-2.2612-.60941c-.2306-.06235-.4764-.03012-.6834.08959-.207.11971-.3581.31712-.4202.54872-.062.2317-.03.4786.0892.6865.1192.2079.3157.3597.5463.422l4.3477 1.17c.1142.0309.2334.0389.3506.0236.1173-.0154.2304-.0538.3329-.113.1025-.0593.1923-.1383.2644-.2325.0721-.0942.125-.2017.1557-.3164l1.1648-4.36713c.0306-.1147.0384-.23433.023-.35207-.0154-.11773-.0537-.23127-.1128-.33412-.0591-.10285-.1378-.193-.2316-.26531-.0938-.0723-.2008-.12534-.315-.1561-.1142-.03075-.2333-.03861-.3505-.02313-.1172.01548-.2303.054-.3326.11336-.1024.05936-.1922.1384-.2642.2326-.072.0942-.1248.20172-.1554.31642l-.5995 2.24594-4.5583-8.0127ZM4.94993 13.1504l-2.25936.6094c-.23062.0624-.47645.0302-.68341-.0896-.20696-.1197-.3581-.3171-.42017-.5487-.06207-.2317-.02999-.4786.08919-.6865.11918-.2078.31569-.3597.54631-.422l4.34951-1.17c.23037-.0619.47577-.0294.68234.0902.20657.1197.35742.3168.41943.5481l1.16479 4.3671c.06184.2317.02952.4785-.08983.6862-.11935.2078-.31595.3593-.54657.4214-.23062.0622-.47635.0297-.68314-.0902-.2068-.1199-.35771-.3173-.41954-.549l-.5995-2.2459-4.58174 8.0542c-.07818.1375-.11906.2932-.11852.4516.00053.1583.04245.3137.12156.4507.0791.1369.19263.2506.32922.3297.13658.079.29144.1206.44907.1207h5.89955c.23874 0 .46769.0952.6365.2648.16881.1696.26365.3995.26365.6393 0 .2398-.09484.4698-.26365.6394-.16881.1695-.39776.2648-.6365.2648H2.69957c-.4729-.0001-.93746-.125-1.34722-.3622-.409755-.2371-.750332-.5781-.987658-.989-.237326-.4109-.36307874-.8771-.36467658-1.3521-.00159784-.475.12101458-.9421.35557158-1.3546l4.594343-8.0778ZM24.5551 15.796c-.057-.106-.1346-.1995-.2282-.275-.0935-.0755-.2012-.1314-.3166-.1645-.1154-.0331-.2362-.0427-.3553-.0282-.1191.0145-.2342.0528-.3384.1126-.1042.0598-.1954.1399-.2683.2356-.0729.0958-.1261.2052-.1563.3218-.0302.1167-.0368.2382-.0196.3575.0173.1193.0581.2339.1201.3371l3.0893 5.4322c.0781.1375.119.2932.1185.4516-.0006.1583-.0425.3137-.1216.4507-.0791.1369-.1926.2506-.3292.3297-.1366.079-.2914.1206-.4491.1207H15.2728l1.1648-1.1682c.1688-.1698.2635-.4.2633-.6399-.0001-.2399-.0952-.47-.2642-.6395-.0837-.0839-.183-.1505-.2923-.1959-.1093-.0454-.2265-.0687-.3447-.0686-.2389.0002-.4679.0956-.6367.2654l-2.7004 2.7125c-.084.0837-.1507.1833-.1962.293-.0455.1097-.0689.2274-.0689.3462 0 .1189.0234.2366.0689.3463.0455.1097.1122.2093.1962.293l2.7004 2.7125c.1688.1698.3978.2652.6367.2654.1182.0001.2354-.0232.3447-.0686.1093-.0454.2086-.112.2923-.1959.0837-.084.1501-.1836.1954-.2934.0454-.1097.0688-.2273.0688-.3461.0001-.1188-.0231-.2365-.0683-.3463-.0452-.1098-.1114-.2095-.195-.2936l-1.1648-1.17h10.0276c.4729-.0001.9375-.125 1.3472-.3622.4098-.2371.7504-.5781.9877-.989.2373-.4109.3631-.8771.3647-1.3521.0016-.475-.121-.9421-.3556-1.3546l-3.0893-5.4322Z"/>
</svg>

<svg width="28" height="28" viewBox="0 0 28 28" fill="none" xmlns="http://www.w3.org/2000/svg">
<path d="M16.344 1.36556C16.1077 0.950692 15.7665 0.605898 15.3548 0.366097C14.9432 0.126295 14.4758 0 14 0C13.5242 0 13.0568 0.126295 12.6452 0.366097C12.2335 0.605898 11.8923 0.950692 11.656 1.36556L8.58832 6.75438C8.46967 6.96276 8.43829 7.20996 8.50109 7.44158C8.56389 7.6732 8.71572 7.87028 8.92318 7.98946C9.13064 8.10864 9.37673 8.14016 9.60733 8.07708C9.83792 8.01401 10.0341 7.8615 10.1528 7.65311L13.2187 2.26249C13.2974 2.1242 13.4112 2.00927 13.5484 1.92934C13.6856 1.8494 13.8414 1.80731 14 1.80731C14.1586 1.80731 14.3144 1.8494 14.4516 1.92934C14.5888 2.00927 14.7026 2.1242 14.7813 2.26249L19.3541 10.2987L17.0929 9.68929C16.8623 9.62694 16.6165 9.65917 16.4095 9.77888C16.2025 9.89859 16.0514 10.096 15.9893 10.3276C15.9273 10.5593 15.9593 10.8062 16.0785 11.0141C16.1977 11.222 16.3942 11.3738 16.6248 11.4361L20.9725 12.6061C21.0867 12.637 21.2059 12.645 21.3231 12.6297C21.4404 12.6143 21.5535 12.5759 21.656 12.5167C21.7585 12.4574 21.8483 12.3784 21.9204 12.2842C21.9925 12.19 22.0454 12.0825 22.0761 11.9678L23.2409 7.60067C23.2715 7.48597 23.2793 7.36634 23.2639 7.2486C23.2485 7.13087 23.2102 7.01733 23.1511 6.91448C23.092 6.81163 23.0133 6.72148 22.9195 6.64917C22.8257 6.57687 22.7187 6.52383 22.6045 6.49307C22.4903 6.46232 22.3712 6.45446 22.254 6.46994C22.1368 6.48542 22.0237 6.52394 21.9214 6.5833C21.819 6.64266 21.7292 6.7217 21.6572 6.8159C21.5852 6.9101 21.5324 7.01762 21.5018 7.13232L20.9023 9.37826L16.344 1.36556V1.36556ZM4.94993 13.1504L2.69057 13.7598C2.45995 13.8222 2.21412 13.79 2.00716 13.6702C1.8002 13.5505 1.64906 13.3531 1.58699 13.1215C1.52492 12.8898 1.557 12.6429 1.67618 12.435C1.79536 12.2272 1.99187 12.0753 2.22249 12.013L6.572 10.843C6.80237 10.7811 7.04777 10.8136 7.25434 10.9332C7.46091 11.0529 7.61176 11.25 7.67377 11.4813L8.83856 15.8484C8.9004 16.0801 8.86808 16.3269 8.74873 16.5346C8.62938 16.7424 8.43278 16.8939 8.20216 16.956C7.97154 17.0182 7.72581 16.9857 7.51902 16.8658C7.31222 16.7459 7.16131 16.5485 7.09948 16.3168L6.49998 14.0709L1.91824 22.1251C1.84006 22.2626 1.79918 22.4183 1.79972 22.5767C1.80025 22.735 1.84217 22.8904 1.92128 23.0274C2.00038 23.1643 2.11391 23.278 2.2505 23.3571C2.38708 23.4361 2.54194 23.4777 2.69957 23.4778H8.59912C8.83786 23.4778 9.06681 23.573 9.23562 23.7426C9.40443 23.9122 9.49927 24.1421 9.49927 24.3819C9.49927 24.6217 9.40443 24.8517 9.23562 25.0213C9.06681 25.1908 8.83786 25.2861 8.59912 25.2861H2.69957C2.22667 25.286 1.76211 25.1611 1.35235 24.9239C0.942595 24.6868 0.602018 24.3458 0.364692 23.9349C0.127366 23.524 0.00161326 23.0578 1.54191e-05 22.5828C-0.00158242 22.1078 0.12103 21.6407 0.355587 21.2282L4.94993 13.1504V13.1504ZM24.5551 15.796C24.4981 15.69 24.4205 15.5965 24.3269 15.521C24.2334 15.4455 24.1257 15.3896 24.0103 15.3565C23.8949 15.3234 23.7741 15.3138 23.655 15.3283C23.5359 15.3428 23.4208 15.3811 23.3166 15.4409C23.2124 15.5007 23.1212 15.5808 23.0483 15.6765C22.9754 15.7723 22.9222 15.8817 22.892 15.9983C22.8618 16.115 22.8552 16.2365 22.8724 16.3558C22.8897 16.4751 22.9305 16.5897 22.9925 16.6929L26.0818 22.1251C26.1599 22.2626 26.2008 22.4183 26.2003 22.5767C26.1997 22.735 26.1578 22.8904 26.0787 23.0274C25.9996 23.1643 25.8861 23.278 25.7495 23.3571C25.6129 23.4361 25.4581 23.4777 25.3004 23.4778H15.2728L16.4376 22.3096C16.6064 22.1398 16.7011 21.9096 16.7009 21.6697C16.7008 21.4298 16.6057 21.1997 16.4367 21.0302C16.353 20.9463 16.2537 20.8797 16.1444 20.8343C16.0351 20.7889 15.9179 20.7656 15.7997 20.7657C15.5608 20.7659 15.3318 20.8613 15.163 21.0311L12.4626 23.7436C12.3786 23.8273 12.3119 23.9269 12.2664 24.0366C12.2209 24.1463 12.1975 24.264 12.1975 24.3828C12.1975 24.5017 12.2209 24.6194 12.2664 24.7291C12.3119 24.8388 12.3786 24.9384 12.4626 25.0221L15.163 27.7346C15.3318 27.9044 15.5608 27.9998 15.7997 28C15.9179 28.0001 16.0351 27.9768 16.1444 27.9314C16.2537 27.886 16.353 27.8194 16.4367 27.7355C16.5204 27.6515 16.5868 27.5519 16.6321 27.4421C16.6775 27.3324 16.7009 27.2148 16.7009 27.096C16.701 26.9772 16.6778 26.8595 16.6326 26.7497C16.5874 26.6399 16.5212 26.5402 16.4376 26.4561L15.2728 25.2861H25.3004C25.7733 25.286 26.2379 25.1611 26.6476 24.9239C27.0574 24.6868 27.398 24.3458 27.6353 23.9349C27.8726 23.524 27.9984 23.0578 28 22.5828C28.0016 22.1078 27.879 21.6407 27.6444 21.2282L24.5551 15.796V15.796Z" fill="#2A2238"/>
</svg>
